X:234
T:Sawney & Jockey. (p)1679.PLFD.234
T:Sawney Was Tall. (p)1679.PLFD.234
T:Corn Rigs. (p)1679.PLFD.234
M:4/4
L:1/4
Q:1/2=100
S:Playford, Dancing Master,6th Ed.,1679
O:England
H:1679.
Z:Chris Partington.
K:C
cc/d/ed/c/|B>Ad>G|c>d (e/f/)(e/d/)|cggG|
c>ded/c/|B>Ad(c/B/)|A>G (A/B/)(c/A/)|Gcc2:|
|:cge/f/g|Bdd>d|cge>d|(c/d/)(e/f/)g>c|
cg(a/g/)(f/e/)|(d/c/)(B/A/)BA/G/|A>G|A/B/c/A/|HGcc2:|
